Numix/16/status/indicator-keyboard-Tg.svg

<?xml version="1.0" encoding="UTF-8" standalone="no"?>
<svg
   xmlns:dc="http://purl.org/dc/elements/1.1/"
   xmlns:cc="http://creativecommons.org/ns#"
   xmlns:rdf="http://www.w3.org/1999/02/22-rdf-syntax-ns#"
   xmlns:svg="http://www.w3.org/2000/svg"
   xmlns="http://www.w3.org/2000/svg"
   xmlns:sodipodi="http://sodipodi.sourceforge.net/DTD/sodipodi-0.dtd"
   xmlns:inkscape="http://www.inkscape.org/namespaces/inkscape"
   viewBox="0 0 16 16"
   id="svg2"
   version="1.1"
   inkscape:version="0.91 r13725"
   sodipodi:docname="indicator-keyboard-Tg.svg">
  <metadata
     id="metadata13">
    <rdf:RDF>
      <cc:Work
         rdf:about="">
        <dc:format>image/svg+xml</dc:format>
        <dc:type
           rdf:resource="http://purl.org/dc/dcmitype/StillImage" />
      </cc:Work>
    </rdf:RDF>
  </metadata>
  <defs
     id="defs11" />
  <sodipodi:namedview
     pagecolor="#ffffff"
     bordercolor="#666666"
     borderopacity="1"
     objecttolerance="10"
     gridtolerance="10"
     guidetolerance="10"
     inkscape:pageopacity="0"
     inkscape:pageshadow="2"
     inkscape:window-width="640"
     inkscape:window-height="480"
     id="namedview9"
     showgrid="false"
     inkscape:zoom="14.75"
     inkscape:cx="8"
     inkscape:cy="8"
     inkscape:window-x="65"
     inkscape:window-y="24"
     inkscape:window-maximized="0"
     inkscape:current-layer="svg2" />
  <path
     style="fill:#ececec;fill-opacity:1"
     d="M 1.5996094 0 C 0.71320937 2.9605947e-16 0 0.71320937 0 1.5996094 L 0 14.400391 C 2.9605947e-16 15.286791 0.71320937 16 1.5996094 16 L 14.400391 16 C 15.286791 16 16 15.286791 16 14.400391 L 16 1.5996094 C 16 0.71320937 15.286791 0 14.400391 0 L 1.5996094 0 z M 3.6210938 4.0351562 L 8.2304688 4.0351562 L 8.2304688 4.5664062 L 6.2324219 4.5664062 L 6.2324219 10.273438 L 5.6191406 10.273438 L 5.6191406 4.5664062 L 3.6210938 4.5664062 L 3.6210938 4.0351562 z M 10.695312 5.5292969 C 11.127313 5.5292969 11.472469 5.5591406 11.730469 5.6191406 C 11.994469 5.6731406 12.210906 5.72725 12.378906 5.78125 L 12.378906 10.029297 C 12.378906 10.725297 12.197891 11.219672 11.837891 11.513672 C 11.477891 11.813672 10.934984 11.964844 10.208984 11.964844 C 9.9089844 11.964844 9.636625 11.940578 9.390625 11.892578 C 9.150625 11.850578 8.9435313 11.800234 8.7695312 11.740234 L 8.8867188 11.208984 C 9.0307188 11.274984 9.2247031 11.330906 9.4707031 11.378906 C 9.7227031 11.426906 9.9745626 11.451172 10.226562 11.451172 C 10.778562 11.451172 11.177828 11.342953 11.423828 11.126953 C 11.675828 10.916953 11.802734 10.555062 11.802734 10.039062 L 11.802734 9.7324219 C 11.766734 9.7624219 11.712625 9.7978438 11.640625 9.8398438 C 11.568625 9.8758437 11.477141 9.9150313 11.369141 9.9570312 C 11.267141 9.9990313 11.147766 10.036406 11.009766 10.066406 C 10.877766 10.090406 10.728547 10.101563 10.560547 10.101562 C 10.290547 10.101562 10.029344 10.058609 9.7773438 9.9746094 C 9.5253438 9.8906094 9.3033281 9.7600781 9.1113281 9.5800781 C 8.9253281 9.4000781 8.7741562 9.1687187 8.6601562 8.8867188 C 8.5461563 8.5987187 8.4902344 8.2497969 8.4902344 7.8417969 C 8.4902344 7.5117969 8.5405781 7.2058281 8.6425781 6.9238281 C 8.7445781 6.6418281 8.8882187 6.3993125 9.0742188 6.1953125 C 9.2662188 5.9853125 9.4975781 5.8229844 9.7675781 5.7089844 C 10.043578 5.5889844 10.353313 5.5292969 10.695312 5.5292969 z M 10.703125 6.0605469 C 10.451125 6.0605469 10.227297 6.1053125 10.029297 6.1953125 C 9.8372969 6.2793125 9.6712031 6.4024531 9.5332031 6.5644531 C 9.3952031 6.7204531 9.29075 6.9088594 9.21875 7.1308594 C 9.14675 7.3468594 9.1113281 7.5875625 9.1113281 7.8515625 C 9.1113281 8.1575625 9.1523281 8.4205781 9.2363281 8.6425781 C 9.3203281 8.8585781 9.4285469 9.0358281 9.5605469 9.1738281 C 9.6985469 9.3118281 9.8552969 9.4144687 10.029297 9.4804688 C 10.203297 9.5404687 10.380547 9.5703125 10.560547 9.5703125 C 10.824547 9.5703125 11.063297 9.531125 11.279297 9.453125 C 11.501297 9.375125 11.672969 9.2855937 11.792969 9.1835938 L 11.792969 6.1855469 C 11.690969 6.1555469 11.558484 6.1294687 11.396484 6.1054688 C 11.234484 6.0754687 11.003125 6.0605469 10.703125 6.0605469 z "
     id="path4" />
</svg>

<svg xmlns="http://www.w3.org/2000/svg" viewBox="0 0 16 16">
 <path d="m 1.6 0 c -0.886 0 -1.6 0.713 -1.6 1.6 l 0 12.801 c 0 0.886 0.713 1.6 1.6 1.6 l 12.801 0 c 0.886 0 1.6 -0.713 1.6 -1.6 l 0 -12.801 c 0 -0.886 -0.713 -1.6 -1.6 -1.6 l -12.801 0 z m 2.02 4.04 l 4.609 0 l 0 0.531 l -1.998 0 l 0 5.707 l -0.613 0 l 0 -5.707 l -1.998 0 l 0 -0.531 z m 7.07 1.494 c 0.432 0 0.777 0.03 1.035 0.09 c 0.264 0.054 0.48 0.108 0.648 0.162 l 0 4.248 c 0 0.696 -0.181 1.19 -0.541 1.484 c -0.36 0.3 -0.903 0.451 -1.629 0.451 c -0.3 0 -0.572 -0.024 -0.818 -0.072 c -0.24 -0.042 -0.447 -0.092 -0.621 -0.152 l 0.117 -0.531 c 0.144 0.066 0.338 0.122 0.584 0.17 c 0.252 0.048 0.504 0.072 0.756 0.072 c 0.552 0 0.951 -0.108 1.197 -0.324 c 0.252 -0.21 0.379 -0.572 0.379 -1.088 l 0 -0.307 c -0.036 0.03 -0.09 0.065 -0.162 0.107 c -0.072 0.036 -0.163 0.075 -0.271 0.117 c -0.102 0.042 -0.221 0.079 -0.359 0.109 c -0.132 0.024 -0.281 0.035 -0.449 0.035 c -0.27 0 -0.531 -0.043 -0.783 -0.127 c -0.252 -0.084 -0.474 -0.215 -0.666 -0.395 c -0.186 -0.18 -0.337 -0.411 -0.451 -0.693 c -0.114 -0.288 -0.17 -0.637 -0.17 -1.045 c 0 -0.33 0.05 -0.636 0.152 -0.918 c 0.102 -0.282 0.246 -0.525 0.432 -0.729 c 0.192 -0.21 0.423 -0.372 0.693 -0.486 c 0.276 -0.12 0.586 -0.18 0.928 -0.18 z m 0.008 0.531 c -0.252 0 -0.476 0.045 -0.674 0.135 c -0.192 0.084 -0.358 0.207 -0.496 0.369 c -0.138 0.156 -0.242 0.344 -0.314 0.566 c -0.072 0.216 -0.107 0.457 -0.107 0.721 c 0 0.306 0.041 0.569 0.125 0.791 c 0.084 0.216 0.192 0.393 0.324 0.531 c 0.138 0.138 0.295 0.241 0.469 0.307 c 0.174 0.06 0.351 0.09 0.531 0.09 c 0.264 0 0.503 -0.039 0.719 -0.117 c 0.222 -0.078 0.394 -0.168 0.514 -0.27 l 0 -2.998 c -0.102 -0.03 -0.234 -0.056 -0.396 -0.08 c -0.162 -0.03 -0.393 -0.045 -0.693 -0.045 z" style="fill:#ececec;fill-opacity:1"/>
</svg>
